X:23
T:The Tea Bag
C:François Champs
Z:Gwen, 2019-04-13
R:Jig
M:6/8
K:A
|: ecA Bcd | ecA BAF | EAA GAB | cc/c/c Bcd |
   ecA Bcd | ecA BAF | EAA GAB |1 EcB A2a :|2 EcB A2c |
|: B2B BAF | B2B Bdc | B2B BAF | AcB A2c |
   B2B BAF | B2B Bcd |1 ecA BAF | EcB A2c :|2 ece fec | ABc dfa ||

